src/logos/logo-white-on-transparent-en.svg

<svg height="17" viewBox="0 0 150 17" width="150" xmlns="http://www.w3.org/2000/svg"><g fill="#fff" fill-rule="evenodd" transform="translate(0 3)"><path d="m43.3116883.15151515h-3.9610389c-3.2900433 0-5.952381 2.66233766-5.952381 5.95238095 0 1.70995671.7359307 3.33333334 2.012987 4.4805195l-1.3203463 3.1168831 3.2683983-1.969697c.6277056.2380953 1.2987013.3463204 1.991342.3463204h3.9610389c3.2900433-.0649351 5.9090909-2.77056279 5.8441559-6.06060608-.0649351-3.22510823-2.6406927-5.8008658-5.8441559-5.86580087zm.021645 9.74025974h-3.9610389c-1.7099567 0-3.4415585-1.34199134-3.7662338-3.03030303-.4761905-2.42424242 1.3636364-4.54545454 3.7229437-4.54545454h3.961039c1.7099567 0 3.4415584 1.34199134 3.7662338 3.03030303.4545454 2.42424242-1.3852814 4.54545454-3.7229438 4.54545454z"/><g fill-rule="nonzero"><path d="m29.8917749 3.50649351c-.1515152-.23809524-.3246753-.43290044-.5194805-.60606061-.4545455-.34632035-.995671-.54112554-1.5584416-.54112554-.4761905-.02164502-.9523809.08658009-1.3636363.3030303-.3679654.1948052-.6709957.47619048-.909091.84415585-.2380952.36796536-.4112554.75757575-.4978355 1.19047619-.1082251.45454545-.1515151.90909091-.1515151 1.38528138 0 .45454546.04329.88744589.1515151 1.32034632.1082252.41125541.2813853.8008658.5194806 1.14718615.2380952.34632035.5411255.62770563.9090909.82251082.4112554.21645022.8874459.32467533 1.3636363.30303031.6277057.04329004 1.2554113-.21645022 1.7099567-.67099568.4329005-.49783549.6926407-1.1038961.7575758-1.75324675h2.2943723c-.04329.62770563-.2164502 1.25541126-.4761905 1.83982684-.2380952.51948052-.5844156.99567101-.995671 1.38528141s-.9090909.6926407-1.4502164.8874459c-.5844156.2164502-1.2121212.3030303-1.8398269.3030303-.7575757.021645-1.5367965-.1298702-2.2294372-.4329005-.6277056-.2813852-1.2121212-.6709956-1.6666667-1.1904762-.4545454-.51948048-.8225108-1.12554108-1.038961-1.77489173-.2380952-.71428572-.3679654-1.45021645-.3679654-2.20779221s.1082251-1.51515151.3679654-2.25108225c.2380952-.67099567.5844156-1.27705628 1.038961-1.81818182.4545455-.51948052 1.0389611-.93073593 1.6666667-1.21212121 1.2554113-.51948052 2.6406926-.58441558 3.9177489-.17316017.5194805.17316017.995671.41125541 1.4285715.75757575.4112554.32467533.7575757.75757576 1.017316 1.21212122.2813853.51948052.4545454 1.08225108.5194805 1.66666666h-2.2943723c-.0649351-.23809524-.1515152-.4978355-.3030303-.73593073z"/><path d="m52.7056277.62770563 4.5238095 7.25108225h.0216451v-7.25108225h2.2294372v10.82251087h-2.3809524l-4.5021645-7.2510823h-.021645v7.2510823h-2.2077922v-10.82251087z"/><path d="m63.7662338 11.4502165-3.5064935-10.82251087h2.4458874l2.4025974 7.5974026h.021645l2.4458875-7.5974026h2.4458874l-3.5714285 10.82251087z"/><path d="m78.8744589.62770563v1.99134199h-5.7142857v2.31601732h5.2380952v1.83982683h-5.2380952v2.64069265h5.8441558v1.99134198h-8.2251082v-10.82251082z"/><path d="m85.6277056.62770563c.4545455 0 .8874459.06493506 1.3203463.23809524.3679654.15151515.7142858.36796536.995671.64935065.2813853.25974025.4978355.58441558.6277057.95238095.1515151.36796537.2164502.75757576.2164502 1.14718614.021645.58441559-.1298701 1.14718615-.4112554 1.64502165-.3030303.4978355-.7575758.86580087-1.3203463 1.06060606v.02164502c.2597402.06493507.5194805.1948052.7359307.36796537.1948052.17316017.3463203.36796537.4761905.58441558.1298701.23809524.2164502.4978355.2597402.75757576.0649351.25974026.0865801.54112554.1082251.82251082 0 .17316018.0216451.36796537.0216451.60606061s.021645.47619048.04329.71428572c.021645.2380952.0649351.4545454.1298701.6926407.0432901.1948052.1298702.3896104.2380953.5627706h-2.3809524c-.1515152-.3896104-.2164502-.8008659-.2380952-1.2337663-.0216451-.47619046-.0865801-.93073591-.1298702-1.36363635-.04329-.45454545-.2164502-.88744588-.5194805-1.23376623-.2597403-.25974026-.6926407-.38961039-1.2987013-.38961039h-2.3809524v4.22077927h-2.3809524v-10.82251087zm-.8441558 4.89177489c.5411255 0 .9523809-.12987013 1.2337662-.36796537s.4112554-.62770563.4112554-1.19047619c0-.51948052-.1298701-.90909091-.4112554-1.14718615-.2813853-.23809523-.6926407-.34632034-1.2337662-.34632034h-2.5974026v3.05194805z"/><path d="m91.991342 8.78787879c.1298701.23809524.3030303.45454545.5194805.6060606.2380952.17316018.4978355.28138529.7792208.34632035.3030303.08658009.6060606.10822511.9090909.10822511.2380952 0 .4545455-.02164502.6709957-.04329004.2380952-.04329005.4761904-.10822511.6709956-.21645022.2164503-.08658009.3896104-.23809524.5411256-.41125541.1515151-.1948052.2164502-.43290044.2164502-.67099567 0-.25974026-.0865801-.51948052-.2813853-.71428572-.2164502-.19480519-.4545454-.34632034-.7359307-.45454545-.3246753-.12987013-.6709957-.23809524-1.0389611-.32467533-.3896103-.08658008-.7792207-.19480519-1.1688311-.3030303-.4112554-.10822511-.8008658-.21645022-1.1904762-.36796537-.3679654-.12987013-.7142857-.32467532-1.0389611-.56277056-.6709956-.4978355-1.038961-1.2987013-1.017316-2.14285714-.021645-.4978355.1082251-.995671.3463204-1.45021645.2380952-.41125542.5411255-.75757576.9307359-1.01731602.3896104-.28138528.8441558-.47619048 1.2987013-.60606061.4761905-.12987013.952381-.19480519 1.4502165-.19480519.5411255 0 1.1038961.06493506 1.6233766.19480519.4978355.10822511.974026.32467533 1.3852814.60606061s.7359307.64935065.9740259 1.08225108c.2597403.4978355.3679654 1.03896104.3463204 1.6017316h-2.2943723c0-.28138528-.0865801-.56277056-.1948052-.8008658-.1082251-.19480519-.2597403-.36796537-.4545455-.4978355s-.4112554-.21645021-.6493506-.25974026c-.2597403-.04329004-.5411256-.08658008-.8225108-.08658008-.1948052 0-.3896104.02164502-.5844156.06493506-.1948052.04329005-.3679654.10822511-.5194805.21645022-.1515152.10822511-.2813853.21645022-.3896104.38961039s-.1515152.36796537-.1515152.58441558c0 .17316018.0432901.36796537.1298702.51948052.1082251.17316018.2813852.30303031.4761904.36796537.3246754.12987013.6493507.25974026.974026.32467533.4112554.1082251.974026.25974026 1.6450216.43290043.1948052.04329004.4761905.10822511.8441559.21645021.3679654.10822511.7359307.28138529 1.0606061.4978355.3679653.23809524.6709956.56277057.9090909.93073593.2813852.45454546.4112554.97402598.3896103 1.4935065 0 .47619047-.08658.95238095-.2813852 1.38528138-.1948052.43290047-.4978355.80086577-.8658009 1.10389607-.4112554.3246754-.8874459.5627706-1.4069264.7142858-.6277056.1731601-1.2987013.2597402-1.948052.2597402-.5844155 0-1.1688311-.0649351-1.7316017-.2164502-.5411255-.1298701-1.038961-.3679654-1.4935065-.6926407-.4329004-.3030303-.7792208-.7142857-1.017316-1.19047619-.2597403-.54112554-.3896104-1.12554113-.3679654-1.73160173h2.2943723c.0432901.3030303.1298702.6060606.2597403.90909091z"/><path d="m105.12987.62770563 4.047619 10.82251087h-2.467532l-.822511-2.40259745h-4.047619l-.844156 2.40259745h-2.4025974l4.0909094-10.82251087zm.151515 6.64502164-1.363636-3.96103896h-.021645l-1.406927 3.96103896z"/><path d="m107.186147 2.61904762v-1.99134199h8.874459v1.99134199h-3.246753v8.80952378h-2.380953v-8.80952378z"/><path d="m119.350649.62770563v10.82251087h-2.380952v-10.82251087z"/><path d="m120.47619 3.83116883c.238096-.67099567.584416-1.27705628 1.038962-1.81818182.454545-.51948052 1.038961-.93073593 1.666666-1.21212121 1.428572-.58441558 3.051948-.58441558 4.48052 0 .627705.28138528 1.212121.69264069 1.666666 1.21212121.454546.51948052.822511 1.14718615 1.038961 1.81818182.238096.71428572.367966 1.49350649.346321 2.25108225 0 .75757576-.108225 1.4935065-.367966 2.20779221-.238095.64935065-.584415 1.25541126-1.038961 1.77489181-.454545.5194805-1.038961.9090909-1.666666 1.1904762-1.428572.5844155-3.030303.5844155-4.48052 0-.627705-.2813853-1.212121-.6709957-1.666667-1.1904762-.454545-.51948055-.82251-1.12554116-1.038961-1.77489181-.238095-.71428571-.367965-1.45021645-.367965-2.20779221s.12987-1.51515151.38961-2.25108225zm2.164503 3.57142857c.108225.41125541.281385.8008658.51948 1.14718615s.541126.62770563.909091.82251082c.865801.41125541 1.861472.41125541 2.727273 0 .367965-.19480519.670995-.47619047.909091-.82251082.238095-.34632035.411255-.73593074.497835-1.14718615.108225-.43290043.151515-.88744588.151515-1.32034632 0-.45454545-.04329-.93073593-.151515-1.38528138-.08658-.43290044-.25974-.82251083-.497835-1.19047619-.238096-.34632035-.541126-.62770563-.909091-.84415585-.865801-.41125541-1.861472-.41125541-2.727273 0-.367965.1948052-.670996.47619048-.909091.84415585-.238095.36796536-.411255.75757575-.497835 1.19047619-.108225.45454545-.151515.90909091-.151515 1.38528138-.021646.45454546.021645.88744589.12987 1.32034632z"/><path d="m133.831169.62770563 4.523809 7.25108225h.021645v-7.25108225h2.229438v10.82251087h-2.380953l-4.502164-7.2510823h-.021645v7.2510823h-2.229438v-10.82251087z"/><path d="m2.38095238.60606061v8.80952381h5.25974026v1.99134198h-7.64069264v-10.82251082z"/><path d="m14.9350649.60606061 4.0476191 10.82251079h-2.4891775l-.8225108-2.4242424h-4.0259741l-.8441558 2.4025974h-2.4025974l4.0909091-10.82251082zm.1298702 6.62337662-1.3636364-3.96103896h-.021645l-1.4285714 3.96103896z"/></g></g></svg>

<?xml version="1.0" encoding="UTF-8"?>
<svg width="150px" height="17px" viewBox="0 0 150 17" version="1.1" xmlns="http://www.w3.org/2000/svg" xmlns:xlink="http://www.w3.org/1999/xlink">
    <!-- Generator: Sketch 55.1 (78136) - https://sketchapp.com -->
    <title>logo-white-on-transparent-en</title>
    <desc>Created with Sketch.</desc>
    <g id="logo-white-on-transparent-en" stroke="none" stroke-width="1" fill="none" fill-rule="evenodd">
        <g id="TC_Horizontal-FRA-Reversed" transform="translate(0.000000, 3.000000)" fill="#FFFFFF">
            <path d="M43.3116883,0.151515152 L39.3506494,0.151515152 C36.0606061,0.151515152 33.3982684,2.81385281 33.3982684,6.1038961 C33.3982684,7.81385281 34.1341991,9.43722944 35.4112554,10.5844156 L34.0909091,13.7012987 L37.3593074,11.7316017 C37.987013,11.969697 38.6580087,12.0779221 39.3506494,12.0779221 L43.3116883,12.0779221 C46.6017316,12.012987 49.2207792,9.30735931 49.1558442,6.01731602 C49.0909091,2.79220779 46.5151515,0.216450216 43.3116883,0.151515152 L43.3116883,0.151515152 Z M43.3333333,9.89177489 L39.3722944,9.89177489 C37.6623377,9.89177489 35.9307359,8.54978355 35.6060606,6.86147186 C35.1298701,4.43722944 36.969697,2.31601732 39.3290043,2.31601732 L43.2900433,2.31601732 C45,2.31601732 46.7316017,3.65800866 47.0562771,5.34632035 C47.5108225,7.77056277 45.6709957,9.89177489 43.3333333,9.89177489 Z" id="Shape"></path>
            <path d="M29.8917749,3.50649351 C29.7402597,3.26839827 29.5670996,3.07359307 29.3722944,2.9004329 C28.9177489,2.55411255 28.3766234,2.35930736 27.8138528,2.35930736 C27.3376623,2.33766234 26.8614719,2.44588745 26.4502165,2.66233766 C26.0822511,2.85714286 25.7792208,3.13852814 25.5411255,3.50649351 C25.3030303,3.87445887 25.1298701,4.26406926 25.04329,4.6969697 C24.9350649,5.15151515 24.8917749,5.60606061 24.8917749,6.08225108 C24.8917749,6.53679654 24.9350649,6.96969697 25.04329,7.4025974 C25.1515152,7.81385281 25.3246753,8.2034632 25.5627706,8.54978355 C25.8008658,8.8961039 26.1038961,9.17748918 26.4718615,9.37229437 C26.8831169,9.58874459 27.3593074,9.6969697 27.8354978,9.67532468 C28.4632035,9.71861472 29.0909091,9.45887446 29.5454545,9.004329 C29.978355,8.50649351 30.2380952,7.9004329 30.3030303,7.25108225 L32.5974026,7.25108225 C32.5541126,7.87878788 32.3809524,8.50649351 32.1212121,9.09090909 C31.8831169,9.61038961 31.5367965,10.0865801 31.1255411,10.4761905 C30.7142857,10.8658009 30.2164502,11.1688312 29.6753247,11.3636364 C29.0909091,11.5800866 28.4632035,11.6666667 27.8354978,11.6666667 C27.0779221,11.6883117 26.2987013,11.5367965 25.6060606,11.2337662 C24.978355,10.952381 24.3939394,10.5627706 23.9393939,10.04329 C23.4848485,9.52380952 23.1168831,8.91774892 22.9004329,8.26839827 C22.6623377,7.55411255 22.5324675,6.81818182 22.5324675,6.06060606 C22.5324675,5.3030303 22.6406926,4.54545455 22.9004329,3.80952381 C23.1385281,3.13852814 23.4848485,2.53246753 23.9393939,1.99134199 C24.3939394,1.47186147 24.978355,1.06060606 25.6060606,0.779220779 C26.8614719,0.25974026 28.2467532,0.194805195 29.5238095,0.606060606 C30.04329,0.779220779 30.5194805,1.01731602 30.952381,1.36363636 C31.3636364,1.68831169 31.7099567,2.12121212 31.969697,2.57575758 C32.2510823,3.0952381 32.4242424,3.65800866 32.4891775,4.24242424 L30.1948052,4.24242424 C30.1298701,4.004329 30.04329,3.74458874 29.8917749,3.50649351 Z" id="Path" fill-rule="nonzero"></path>
            <polygon id="Path" fill-rule="nonzero" points="52.7056277 0.627705628 57.2294372 7.87878788 57.2510823 7.87878788 57.2510823 0.627705628 59.4805195 0.627705628 59.4805195 11.4502165 57.0995671 11.4502165 52.5974026 4.1991342 52.5757576 4.1991342 52.5757576 11.4502165 50.3679654 11.4502165 50.3679654 0.627705628"></polygon>
            <polygon id="Path" fill-rule="nonzero" points="63.7662338 11.4502165 60.2597403 0.627705628 62.7056277 0.627705628 65.1082251 8.22510823 65.1298701 8.22510823 67.5757576 0.627705628 70.021645 0.627705628 66.4502165 11.4502165"></polygon>
            <polygon id="Path" fill-rule="nonzero" points="78.8744589 0.627705628 78.8744589 2.61904762 73.1601732 2.61904762 73.1601732 4.93506494 78.3982684 4.93506494 78.3982684 6.77489177 73.1601732 6.77489177 73.1601732 9.41558442 79.004329 9.41558442 79.004329 11.4069264 70.7792208 11.4069264 70.7792208 0.584415584"></polygon>
            <path d="M85.6277056,0.627705628 C86.0822511,0.627705628 86.5151515,0.692640693 86.9480519,0.865800866 C87.3160173,1.01731602 87.6623377,1.23376623 87.9437229,1.51515152 C88.2251082,1.77489177 88.4415584,2.0995671 88.5714286,2.46753247 C88.7229437,2.83549784 88.7878788,3.22510823 88.7878788,3.61471861 C88.8095238,4.1991342 88.6580087,4.76190476 88.3766234,5.25974026 C88.0735931,5.75757576 87.6190476,6.12554113 87.0562771,6.32034632 L87.0562771,6.34199134 C87.3160173,6.40692641 87.5757576,6.53679654 87.7922078,6.70995671 C87.987013,6.88311688 88.1385281,7.07792208 88.2683983,7.29437229 C88.3982684,7.53246753 88.4848485,7.79220779 88.5281385,8.05194805 C88.5930736,8.31168831 88.6147186,8.59307359 88.6363636,8.87445887 C88.6363636,9.04761905 88.6580087,9.24242424 88.6580087,9.48051948 C88.6580087,9.71861472 88.6796537,9.95670996 88.7012987,10.1948052 C88.7229437,10.4329004 88.7662338,10.6493506 88.8311688,10.8874459 C88.8744589,11.0822511 88.961039,11.2770563 89.0692641,11.4502165 L86.6883117,11.4502165 C86.5367965,11.0606061 86.4718615,10.6493506 86.4502165,10.2164502 C86.4285714,9.74025974 86.3636364,9.28571429 86.3203463,8.85281385 C86.2770563,8.3982684 86.1038961,7.96536797 85.8008658,7.61904762 C85.5411255,7.35930736 85.1082251,7.22943723 84.5021645,7.22943723 L82.1212121,7.22943723 L82.1212121,11.4502165 L79.7402597,11.4502165 L79.7402597,0.627705628 L85.6277056,0.627705628 Z M84.7835498,5.51948052 C85.3246753,5.51948052 85.7359307,5.38961039 86.017316,5.15151515 C86.2987013,4.91341991 86.4285714,4.52380952 86.4285714,3.96103896 C86.4285714,3.44155844 86.2987013,3.05194805 86.017316,2.81385281 C85.7359307,2.57575758 85.3246753,2.46753247 84.7835498,2.46753247 L82.1861472,2.46753247 L82.1861472,5.51948052 L84.7835498,5.51948052 L84.7835498,5.51948052 Z" id="Shape" fill-rule="nonzero"></path>
            <path d="M91.991342,8.78787879 C92.1212121,9.02597403 92.2943723,9.24242424 92.5108225,9.39393939 C92.7489177,9.56709957 93.008658,9.67532468 93.2900433,9.74025974 C93.5930736,9.82683983 93.8961039,9.84848485 94.1991342,9.84848485 C94.4372294,9.84848485 94.6536797,9.82683983 94.8701299,9.80519481 C95.1082251,9.76190476 95.3463203,9.6969697 95.5411255,9.58874459 C95.7575758,9.5021645 95.9307359,9.35064935 96.0822511,9.17748918 C96.2337662,8.98268398 96.2987013,8.74458874 96.2987013,8.50649351 C96.2987013,8.24675325 96.2121212,7.98701299 96.017316,7.79220779 C95.8008658,7.5974026 95.5627706,7.44588745 95.2813853,7.33766234 C94.95671,7.20779221 94.6103896,7.0995671 94.2424242,7.01298701 C93.8528139,6.92640693 93.4632035,6.81818182 93.0735931,6.70995671 C92.6623377,6.6017316 92.2727273,6.49350649 91.8831169,6.34199134 C91.5151515,6.21212121 91.1688312,6.01731602 90.8441558,5.77922078 C90.1731602,5.28138528 89.8051948,4.48051948 89.8268398,3.63636364 C89.8051948,3.13852814 89.9350649,2.64069264 90.1731602,2.18614719 C90.4112554,1.77489177 90.7142857,1.42857143 91.1038961,1.16883117 C91.4935065,0.887445887 91.9480519,0.692640693 92.4025974,0.562770563 C92.8787879,0.432900433 93.3549784,0.367965368 93.8528139,0.367965368 C94.3939394,0.367965368 94.95671,0.432900433 95.4761905,0.562770563 C95.974026,0.670995671 96.4502165,0.887445887 96.8614719,1.16883117 C97.2727273,1.45021645 97.5974026,1.81818182 97.8354978,2.25108225 C98.0952381,2.74891775 98.2034632,3.29004329 98.1818182,3.85281385 L95.8874459,3.85281385 C95.8874459,3.57142857 95.8008658,3.29004329 95.6926407,3.05194805 C95.5844156,2.85714286 95.4329004,2.68398268 95.2380952,2.55411255 C95.04329,2.42424242 94.8268398,2.33766234 94.5887446,2.29437229 C94.3290043,2.25108225 94.047619,2.20779221 93.7662338,2.20779221 C93.5714286,2.20779221 93.3766234,2.22943723 93.1818182,2.27272727 C92.987013,2.31601732 92.8138528,2.38095238 92.6623377,2.48917749 C92.5108225,2.5974026 92.3809524,2.70562771 92.2727273,2.87878788 C92.1645022,3.05194805 92.1212121,3.24675325 92.1212121,3.46320346 C92.1212121,3.63636364 92.1645022,3.83116883 92.2510823,3.98268398 C92.3593074,4.15584416 92.5324675,4.28571429 92.7272727,4.35064935 C93.0519481,4.48051948 93.3766234,4.61038961 93.7012987,4.67532468 C94.1125541,4.78354978 94.6753247,4.93506494 95.3463203,5.10822511 C95.5411255,5.15151515 95.8225108,5.21645022 96.1904762,5.32467532 C96.5584416,5.43290043 96.9264069,5.60606061 97.2510823,5.82251082 C97.6190476,6.06060606 97.9220779,6.38528139 98.1601732,6.75324675 C98.4415584,7.20779221 98.5714286,7.72727273 98.5497835,8.24675325 C98.5497835,8.72294372 98.4632035,9.1991342 98.2683983,9.63203463 C98.0735931,10.0649351 97.7705628,10.4329004 97.4025974,10.7359307 C96.991342,11.0606061 96.5151515,11.2987013 95.995671,11.4502165 C95.3679654,11.6233766 94.6969697,11.7099567 94.047619,11.7099567 C93.4632035,11.7099567 92.8787879,11.6450216 92.3160173,11.4935065 C91.7748918,11.3636364 91.2770563,11.1255411 90.8225108,10.8008658 C90.3896104,10.4978355 90.04329,10.0865801 89.8051948,9.61038961 C89.5454545,9.06926407 89.4155844,8.48484848 89.4372294,7.87878788 L91.7316017,7.87878788 C91.7748918,8.18181818 91.8614719,8.48484848 91.991342,8.78787879 Z" id="Path" fill-rule="nonzero"></path>
            <path d="M105.12987,0.627705628 L109.177489,11.4502165 L106.709957,11.4502165 L105.887446,9.04761905 L101.839827,9.04761905 L100.995671,11.4502165 L98.5930736,11.4502165 L102.683983,0.627705628 L105.12987,0.627705628 Z M105.281385,7.27272727 L103.917749,3.31168831 L103.896104,3.31168831 L102.489177,7.27272727 L105.281385,7.27272727 L105.281385,7.27272727 Z" id="Shape" fill-rule="nonzero"></path>
            <polygon id="Path" fill-rule="nonzero" points="107.186147 2.61904762 107.186147 0.627705628 116.060606 0.627705628 116.060606 2.61904762 112.813853 2.61904762 112.813853 11.4285714 110.4329 11.4285714 110.4329 2.61904762"></polygon>
            <polygon id="Path" fill-rule="nonzero" points="119.350649 0.627705628 119.350649 11.4502165 116.969697 11.4502165 116.969697 0.627705628"></polygon>
            <path d="M120.47619,3.83116883 C120.714286,3.16017316 121.060606,2.55411255 121.515152,2.01298701 C121.969697,1.49350649 122.554113,1.08225108 123.181818,0.800865801 C124.61039,0.216450216 126.233766,0.216450216 127.662338,0.800865801 C128.290043,1.08225108 128.874459,1.49350649 129.329004,2.01298701 C129.78355,2.53246753 130.151515,3.16017316 130.367965,3.83116883 C130.606061,4.54545455 130.735931,5.32467532 130.714286,6.08225108 C130.714286,6.83982684 130.606061,7.57575758 130.34632,8.29004329 C130.108225,8.93939394 129.761905,9.54545455 129.307359,10.0649351 C128.852814,10.5844156 128.268398,10.974026 127.640693,11.2554113 C126.212121,11.8398268 124.61039,11.8398268 123.160173,11.2554113 C122.532468,10.974026 121.948052,10.5844156 121.493506,10.0649351 C121.038961,9.54545455 120.670996,8.93939394 120.454545,8.29004329 C120.21645,7.57575758 120.08658,6.83982684 120.08658,6.08225108 C120.08658,5.32467532 120.21645,4.56709957 120.47619,3.83116883 Z M122.640693,7.4025974 C122.748918,7.81385281 122.922078,8.2034632 123.160173,8.54978355 C123.398268,8.8961039 123.701299,9.17748918 124.069264,9.37229437 C124.935065,9.78354978 125.930736,9.78354978 126.796537,9.37229437 C127.164502,9.17748918 127.467532,8.8961039 127.705628,8.54978355 C127.943723,8.2034632 128.116883,7.81385281 128.203463,7.4025974 C128.311688,6.96969697 128.354978,6.51515152 128.354978,6.08225108 C128.354978,5.62770563 128.311688,5.15151515 128.203463,4.6969697 C128.116883,4.26406926 127.943723,3.87445887 127.705628,3.50649351 C127.467532,3.16017316 127.164502,2.87878788 126.796537,2.66233766 C125.930736,2.25108225 124.935065,2.25108225 124.069264,2.66233766 C123.701299,2.85714286 123.398268,3.13852814 123.160173,3.50649351 C122.922078,3.87445887 122.748918,4.26406926 122.662338,4.6969697 C122.554113,5.15151515 122.510823,5.60606061 122.510823,6.08225108 C122.489177,6.53679654 122.532468,6.96969697 122.640693,7.4025974 L122.640693,7.4025974 Z" id="Shape" fill-rule="nonzero"></path>
            <polygon id="Path" fill-rule="nonzero" points="133.831169 0.627705628 138.354978 7.87878788 138.376623 7.87878788 138.376623 0.627705628 140.606061 0.627705628 140.606061 11.4502165 138.225108 11.4502165 133.722944 4.1991342 133.701299 4.1991342 133.701299 11.4502165 131.471861 11.4502165 131.471861 0.627705628"></polygon>
            <polygon id="Path" fill-rule="nonzero" points="2.38095238 0.606060606 2.38095238 9.41558442 7.64069264 9.41558442 7.64069264 11.4069264 0 11.4069264 0 0.584415584"></polygon>
            <path d="M14.9350649,0.606060606 L18.982684,11.4285714 L16.4935065,11.4285714 L15.6709957,9.004329 L11.6450216,9.004329 L10.8008658,11.4069264 L8.3982684,11.4069264 L12.4891775,0.584415584 L14.9350649,0.606060606 Z M15.0649351,7.22943723 L13.7012987,3.26839827 L13.6796537,3.26839827 L12.2510823,7.22943723 L15.0649351,7.22943723 L15.0649351,7.22943723 Z" id="Shape" fill-rule="nonzero"></path>
        </g>
    </g>
</svg>
